packages/core/src/svgs/tokens/branded/DKA.svg

<svg width="24" height="24" viewBox="0 0 24 24" fill="none" xmlns="http://www.w3.org/2000/svg">
<path d="M16.2863 15.3323C14.0264 15.319 14.1865 15.039 12.9732 13.8657C11.8185 12.7257 10.6337 11.6166 9.42016 10.5393C8.71352 9.93265 6.77368 9.99938 6.77368 9.99938H3.42728V20.6651H7.43364C8.32689 20.6651 9.54677 19.5986 9.54677 19.5986L12.6533 16.3123L13.7131 17.4322C13.7131 17.4322 11.3934 19.9118 10.4534 20.8319C9.17346 22.0918 7.43364 21.9984 7.43364 21.9984H2.00073V8.66614H6.77368C9.58005 8.66614 10.3934 9.48609 10.3934 9.48609C10.3934 9.48609 13.9931 12.9191 14.6131 13.4591C15.4596 14.139 16.5663 13.999 16.5663 13.999H20.5726V3.33324H17.2262C17.1195 3.33324 16.193 3.28658 15.2597 3.81985C14.5797 4.09318 11.4999 7.44623 11.4999 7.44623L10.3867 6.41965C10.3867 6.41965 12.8665 3.8132 13.3664 3.33324C13.8665 2.85326 14.7663 2 17.2262 2H21.9991V15.3323H16.2863Z" fill="#1FC0DC"/>
</svg>

<svg xmlns="http://www.w3.org/2000/svg" width="24" height="24" fill="none" viewBox="0 0 24 24">
    <path fill="#1FC0DC" d="M16.286 15.332c-2.26-.013-2.1-.293-3.313-1.466a92 92 0 0 0-3.553-3.327C8.714 9.933 6.774 10 6.774 10H3.427v10.666h4.007c.893 0 2.113-1.066 2.113-1.066l3.106-3.287 1.06 1.12s-2.32 2.48-3.26 3.4c-1.28 1.26-3.02 1.166-3.02 1.166H2.002V8.666h4.773c2.806 0 3.62.82 3.62.82s3.6 3.433 4.22 3.973c.846.68 1.952.54 1.952.54h4.007V3.333h-3.347c-.107 0-1.033-.046-1.966.487-.68.273-3.76 3.626-3.76 3.626L10.387 6.42s2.48-2.607 2.98-3.087S14.766 2 17.226 2h4.772v13.332z"/>
</svg>
